X: 49
T:Gallop,A. HS.49
M:C
Q:110
S:Henry Stables MS,Cumbria,late19thC
R:Gallop
O:Walthwaite,nr.Ambleside.
A:England
Z:vmp.Chris Partington
K:Bb
"with spirit"B|FB AB|Ff =e2|fc dA|BFG2|!
FB AB|Ff=e2|fc dA|B3::!
F/B/|dzcz|BF dz|cF fz|dF dz|!
dzcz|BF dz|cF fF|B3::!
z|dzcz|B/B/B/B/ BF|.B.c .d.e|gf =ef|!
ezdz|c/c/c/c/ cB|AF GA|B3:||
